usr/share/icons/biglinux-icons-material/symbolic/status/appointment-missed-symbolic.svg

<svg width="16" height="16" version="1.1" xmlns="http://www.w3.org/2000/svg">
 <path d="m10.478 4.0043a0.5 0.5 0 0 0-0.072 8e-3v8e-3a0.5 0.5 0 0 0-0.25 0.156l-2.656 2.648-1.657-1.648c-0.314-0.514-1.2 0.373-0.687 0.687l2 2a0.5 0.5 0 0 0 0.687 0l3-3a0.5 0.5 0 0 0-0.365-0.859z" fill="#dedede"/>
 <path class="error" d="m12.5 9a3.5 3.5 0 1 0 0 7 3.5 3.5 0 0 0 0-7zm-0.5 1h1v3h-1zm0 4h1v1h-1z" fill="#f55f55" overflow="visible"/>
 <path d="m7.463 0a7.5 7.5 0 0 0-7.463 7.5 7.5 7.5 0 0 0 7.5 7.5 7.5 7.5 0 0 0 1.197-0.096 4.5 4.5 0 0 1-0.455-0.947 6.5 6.5 0 0 1-0.742 0.043 6.5 6.5 0 0 1-6.5-6.5 6.5 6.5 0 0 1 6.5-6.5 6.5 6.5 0 0 1 6.5 6.5 6.5 6.5 0 0 1-0.043 0.744 4.5 4.5 0 0 1 0.947 0.453 7.5 7.5 0 0 0 0.096-1.197 7.5 7.5 0 0 0-7.5-7.5 7.5 7.5 0 0 0-0.037 0z" fill="#dedede"/>
</svg>

<svg xmlns="http://www.w3.org/2000/svg" width="16" height="16"><path fill="#dedede" d="M10.478 4.004a.5.5 0 0 0-.072.008v.008a.5.5 0 0 0-.25.156L7.5 6.824 5.843 5.176c-.314-.514-1.2.373-.687.687l2 2a.5.5 0 0 0 .687 0l3-3a.5.5 0 0 0-.365-.859z"/><path fill="#f55f55" d="M12.5 9a3.5 3.5 0 1 0 0 7 3.5 3.5 0 0 0 0-7zm-.5 1h1v3h-1zm0 4h1v1h-1z" class="error" overflow="visible"/><path fill="#dedede" d="M7.463 0A7.5 7.5 0 0 0 0 7.5 7.5 7.5 0 0 0 7.5 15a7.5 7.5 0 0 0 1.197-.096 4.5 4.5 0 0 1-.455-.947A6.5 6.5 0 0 1 7.5 14 6.5 6.5 0 0 1 1 7.5 6.5 6.5 0 0 1 7.5 1 6.5 6.5 0 0 1 14 7.5a6.5 6.5 0 0 1-.043.744 4.5 4.5 0 0 1 .947.453A7.5 7.5 0 0 0 15 7.5 7.5 7.5 0 0 0 7.5 0a7.5 7.5 0 0 0-.037 0z"/></svg>
